X: 27499
T: Molly's
R: waltz
M: 3/4
K: Gmajor
|:D GA|B3 D GB|A3 D FA|G3 F GA|B2 c2 d2|
e3 f ef|a2 g2 e2|d6|c6|
B3 D GB|A3 D FA|G3 A GF|E2 G2 c2|
B6|A2 G2 F2|G6|G2 A2 B2|
cd c3 d|e2 d2 c2|Bc B3 A|G6|
FG F3 G|A2 B2 c2|d6|g2 f2 =f2|
ef e3 f|a2 g2 e2|d4 c2|B6|
A2 B2 c2|B2 F3 A|1 G3 F E=E|D3:|2 GF GA Bd|g3||

